chanel.svg

<?xml version="1.0" encoding="UTF-8"?>
<svg viewBox="0 0 9 6" version="1.1" xmlns="http://www.w3.org/2000/svg" xmlns:xlink="http://www.w3.org/1999/xlink">
    <title>Chanel</title>
    <g id="Page-1" stroke="none" stroke-width="1" fill="none" fill-rule="evenodd">
        <path d="M3.72837472,0.00721693629 C4.10599382,0.0418836985 4.42968592,0.133445256 4.76410307,0.300170733 L4.92392399,0.379852793 L4.97746617,0.349385798 C5.06392544,0.300187344 5.21753945,0.229201044 5.33420271,0.184529037 C5.66153812,0.0591977004 5.99119627,-0.000460026795 6.35542429,-0.000283238295 C6.60977179,-0.000158263731 6.82196106,0.0248327012 7.05230594,0.0817939401 C7.57270327,0.210477892 8.01649153,0.457275783 8.39886132,0.830628673 C8.60615871,1.03303694 8.7686152,1.23970034 8.89978247,1.4678609 L8.91966008,1.50244184 L8.59613685,1.6693445 C8.41819631,1.76114415 8.23205556,1.85751731 8.18249167,1.88350492 L8.09237525,1.93076268 L8.02425709,1.82800543 C7.68815394,1.32099365 7.13837486,0.990917461 6.53660671,0.934847668 C6.35845576,0.918247931 6.09392029,0.933532646 5.93311934,0.969719297 C5.85036151,0.988342785 5.71601327,1.0267276 5.71604926,1.03173853 C5.71607141,1.0343575 5.73805028,1.06345133 5.76489612,1.09639334 C6.10974486,1.51952329 6.32506526,2.03530835 6.39463688,2.60489859 C6.41124215,2.740847 6.41345692,3.0879382 6.39857641,3.22252453 C6.33573494,3.79087727 6.12083257,4.315383 5.77779995,4.73762981 C5.7000309,4.83335238 5.70335307,4.8267302 5.7282942,4.83636447 C5.74007126,4.84091583 5.79518593,4.85616179 5.85077401,4.87024499 C6.13328515,4.94182651 6.43739587,4.95194249 6.72293571,4.89925023 C7.24227825,4.80341416 7.7100193,4.49626642 8.0108577,4.05351356 C8.03883307,4.01233536 8.06410088,3.97588848 8.06700224,3.97250818 C8.06990359,3.96913341 8.13925096,3.9999437 8.22110627,4.04097517 C8.38325823,4.1222574 8.8911753,4.3850958 8.89662365,4.39054138 C8.90569869,4.39961642 8.74382634,4.63990287 8.64455183,4.7647165 C8.55056786,4.88288028 8.30421569,5.12894452 8.18651979,5.22221976 C7.7611806,5.55929187 7.28385234,5.76538774 6.75809526,5.83897086 C6.15441963,5.92345899 5.51510275,5.81030891 4.99492967,5.52692017 L4.92141299,5.48687151 L4.83023071,5.53511484 C4.37844434,5.77414994 3.8602258,5.88809734 3.33534355,5.86382341 C2.93602797,5.84535218 2.49136487,5.72410711 2.13288696,5.53595368 C1.85768458,5.39150607 1.63956802,5.22986627 1.41106971,5.00101913 C1.23210206,4.82178295 1.10006827,4.65667702 0.988302424,4.47236623 L0.939375281,4.39167922 L1.00878632,4.35486413 C1.14403708,4.28313034 1.7606027,3.96741419 1.76544198,3.96741419 C1.768144,3.96741419 1.79361668,4.00208373 1.82204609,4.04446067 C2.14336007,4.52336973 2.64603089,4.83490825 3.23427231,4.91970091 C3.33710707,4.93452329 3.64633946,4.93215902 3.75832124,4.91569493 C3.88292724,4.89737321 4.03238578,4.86339303 4.12731656,4.83180203 C4.13349302,4.82974783 4.1216938,4.81057895 4.09453236,4.77856715 C3.88426995,4.53071448 3.69259503,4.19053061 3.58476042,3.87383442 C3.38970243,3.30096355 3.3758158,2.6860341 3.54489447,2.10825749 C3.64988864,1.74946675 3.83058381,1.40121556 4.05941987,1.11662254 C4.09351356,1.07422345 4.12141142,1.03681313 4.12141142,1.03349374 C4.12141142,1.02220115 3.94277876,0.974652708 3.82570023,0.954780641 C3.6448168,0.924081095 3.36164677,0.92027445 3.19816871,0.946345118 C2.92310199,0.99021427 2.64391302,1.09323175 2.42574663,1.23135618 C2.18262803,1.38528303 1.97989032,1.58309287 1.81810932,1.82423201 L1.74667176,1.93070454 L1.65574142,1.88296784 C1.6057318,1.85671445 1.41995096,1.76043542 1.24289909,1.66902336 C1.06584723,1.5776113 0.920436188,1.50233111 0.919710796,1.50173865 C0.916947918,1.49925534 1.02779186,1.3229565 1.07341622,1.25735487 C1.21194761,1.05817187 1.45793711,0.794381115 1.63967599,0.650116223 C2.11490575,0.272884708 2.6432209,0.0604324373 3.23801805,0.00737473899 C3.34835259,-0.00246993491 3.62193818,-0.00255575743 3.72837472,0.00721693629 Z M4.91901549,1.55460533 L4.8714006,1.60623726 C4.80863389,1.67429452 4.70403838,1.81314429 4.65131843,1.89838821 C4.38363522,2.33123825 4.29623467,2.86301121 4.40959515,3.36913708 C4.48093027,3.68763277 4.64493988,4.00847612 4.8659661,4.26190449 L4.91686439,4.32026381 L4.93913949,4.29918192 C4.9513872,4.28759034 4.98862586,4.24441331 5.02189178,4.20324064 C5.2736563,3.89159415 5.43074474,3.51355701 5.46945901,3.12616245 C5.48245143,2.99614409 5.47473017,2.73129025 5.45449543,2.61289947 C5.39881046,2.28711717 5.27966388,2.00788667 5.08746019,1.7527197 C5.05126523,1.70467293 4.9985619,1.64043616 4.97033459,1.609983 L4.91901549,1.55460533 Z" id="chanel" fill="#000000" fill-rule="nonzero"></path>
    </g>
</svg>

<svg viewBox="0 0 9 6" xmlns="http://www.w3.org/2000/svg"><path d="M3.728.007c.378.035.702.126 1.036.293l.16.08.053-.03A2.784 2.784 0 0 1 6.355 0c.255 0 .467.025.697.082.52.128.964.375 1.347.749.207.202.37.409.5.637l.02.034-.323.167-.414.215-.09.047-.068-.103A2.016 2.016 0 0 0 6.537.935a2.278 2.278 0 0 0-.604.035 1.627 1.627 0 0 0-.217.062c0 .002.022.031.049.064.345.424.56.94.63 1.509.016.136.018.483.004.618a2.898 2.898 0 0 1-.621 1.515c-.078.095-.075.089-.05.098a2.065 2.065 0 0 0 .995.063c.52-.096.987-.403 1.288-.845a3.09 3.09 0 0 1 .056-.081.935.935 0 0 1 .154.068c.162.081.67.344.676.35.009.009-.153.249-.252.374-.094.118-.34.364-.458.457a2.917 2.917 0 0 1-3.192.305l-.074-.04-.09.048c-.453.24-.97.353-1.496.329a3 3 0 0 1-1.202-.328 2.832 2.832 0 0 1-.722-.535 2.75 2.75 0 0 1-.423-.529l-.049-.08.07-.037c.135-.072.752-.388.756-.388.003 0 .029.035.057.077.321.48.824.79 1.412.876.103.015.412.012.524-.004.125-.019.274-.053.37-.084.005-.002-.006-.021-.033-.053a2.945 2.945 0 0 1-.51-.905 2.923 2.923 0 0 1 .474-2.757.778.778 0 0 0 .062-.084c0-.01-.178-.058-.295-.078a2.332 2.332 0 0 0-.628-.009 2.11 2.11 0 0 0-.772.285 2.037 2.037 0 0 0-.608.593l-.071.107-.091-.048a113.446 113.446 0 0 0-.736-.381 3.619 3.619 0 0 1 .153-.245c.139-.199.385-.463.567-.607A2.929 2.929 0 0 1 3.238.007c.11-.01.384-.01.49 0ZM4.92 1.555l-.048.051A1.982 1.982 0 0 0 4.41 3.37c.072.319.236.64.457.893l.05.058.023-.02a2.05 2.05 0 0 0 .53-1.173c.013-.13.006-.396-.015-.514A1.93 1.93 0 0 0 4.97 1.61l-.051-.055Z" fill="#000" fill-rule="nonzero"/></svg>
